svg/u1f9f3.svg

<svg viewBox="0 0 128 128" xmlns="http://www.w3.org/2000/svg">
  <g>
    <g>
      <g>
        <circle cx="58.5" cy="117.94" r="6.06" fill="#616161"/>
        <circle cx="58.5" cy="117.94" r="2.56" fill="#9E9E9E"/>
      </g>
      <path d="M44.18,115.27l-1.16-0.71c-1.48-0.91-1.94-2.84-1.03-4.32l2.62-4.26 c0.91-1.48,2.84-1.94,4.32-1.03l1.16,0.71c1.48,0.91,1.94,2.84,1.03,4.32l-2.62,4.26C47.59,115.72,45.65,116.18,44.18,115.27z" fill="#616161"/>
      <g>
        <circle cx="28.75" cy="99.64" r="6.06" fill="#616161"/>
        <circle cx="28.75" cy="99.64" r="2.56" fill="#9E9E9E"/>
      </g>
      <path d="M14.42,96.97l-1.16-0.71c-1.48-0.91-1.94-2.84-1.03-4.32l2.62-4.26c0.91-1.48,2.84-1.94,4.32-1.03 l1.16,0.71c1.48,0.91,1.94,2.84,1.03,4.32l-2.62,4.26C17.83,97.41,15.9,97.87,14.42,96.97z" fill="#616161"/>
    </g>
    <g>
      <linearGradient id="SVGID_1_" gradientTransform="matrix(0.8526 0.5225 -0.5225 0.8526 40.4956 -26.3602)" gradientUnits="userSpaceOnUse" x1="55.0859" x2="60.0741" y1="20.4088" y2="20.4088">
        <stop offset="0" stop-color="#EEEEEE"/>
        <stop offset="1" stop-color="#757575"/>
      </linearGradient>
      <polygon points="85.89,13.56 75.21,30.98 71.86,28.86 82.63,11.3 " fill="#BDBDBD" stroke="url(#SVGID_1_)" stroke-width="1.0225" stroke-miterlimit="10"/>
      <linearGradient id="SVGID_2_" gradientTransform="matrix(0.8526 0.5225 -0.5225 0.8526 40.4956 -26.3602)" gradientUnits="userSpaceOnUse" x1="74.6715" x2="79.6596" y1="20.3655" y2="20.3655">
        <stop offset="0" stop-color="#EEEEEE"/>
        <stop offset="1" stop-color="#757575"/>
      </linearGradient>
      <polygon points="102.87,23.34 91.81,41.38 88.43,39.31 99.48,21.27 " fill="#BDBDBD" stroke="url(#SVGID_2_)" stroke-width="1.0225" stroke-miterlimit="10"/>
      <path d="M84.25,6.02l-3.07,5.01c-0.29,0.47-0.26,1.02,0.19,1.29c0,0,0.82-0.47,2.43,0.57 s1.75,2.02,1.75,2.02c0.45,0.27,0.88-0.08,1.17-0.55l1.19-1.95c0.79-1.29,2.16-1.84,3.39-1.09l7.33,4.49 c1.23,0.75,1.58,2.41,0.79,3.7l-0.51,0.85c-0.34,0.56-0.91,1.21-0.38,1.54c0,0,0.8-0.2,2.44,0.87c1.64,1.08,1.76,1.71,1.76,1.71 c0.53,0.33,1.06,0.01,1.4-0.55l2.55-4.17c0.64-1.04,1.11-3.09-0.39-5.31c-1.21-1.79-2.3-2.88-7.91-6.32 c-5.65-3.46-6.76-3.64-8.85-4.07C87.18,3.65,84.88,4.99,84.25,6.02z" fill="#616161"/>
      <path d="M90.23,7.69c-1.16-0.25-2.37-0.24-3.51,0.07c-0.14,0.04-0.28,0.08-0.42,0.05 c-0.26-0.05-0.42-0.33-0.41-0.6c0.01-0.26,0.15-0.5,0.31-0.72c1.64-2.18,4.82-1.31,6.95-0.13c0.72,0.4,2.65,1.57,1.53,2.59 c-0.3,0.28-0.77,0.3-1.16,0.18c-0.39-0.12-0.73-0.37-1.08-0.58C91.76,8.15,91.01,7.86,90.23,7.69z" opacity="0.65" fill="#BDBDBD"/>
    </g>
    <g>
      <path d="M107.11,57.86c2.05-3.33,1-7.7-2.33-9.74L90.11,39.1l-40.68,66.13l14.71,9.05 c3.33,2.05,7.7,1,9.74-2.33L107.11,57.86z" fill="#0277BD"/>
      <path d="M19.09,86.64l30.66,18.86c3.33,2.05,7.7,1,9.74-2.33l33.26-54.14c2.05-3.33,1-7.7-2.33-9.74 L59.76,20.44c-3.33-2.05-7.7-1-9.74,2.33L16.76,76.9C14.71,80.24,15.75,84.6,19.09,86.64z" fill="#03A9F4"/>
      <path d="M58.96,111.09c1.44-0.03,2.78-0.41,4.21-0.85c1.81-0.56,3.33-1.46,4.35-3.11 c0,0,32.18-52.4,32.18-52.4c1.18-1.92,1.18-4.23,0.46-6.31c-0.36-1.05-0.8-2.21-1.64-3.33c-0.7-0.93-1.95-2.04-2.01-2.07 c0.78,0,1.94,0.72,3.54,2.22c2.93,2.74,3.38,7.17,1.33,10.51c0,0.01-32.18,52.4-32.18,52.4c-1.16,1.9-3.03,3.3-5.17,3.9 c-0.97,0.27-2.17,0.38-3.2,0.27C59.29,112.16,58.96,111.09,58.96,111.09z" fill="#212121"/>
      <g>
        <ellipse cx="45.99" cy="58.75" rx="4.94" ry="7.98" fill="#784D30" transform="matrix(0.9675 -0.2528 0.2528 0.9675 -13.3585 13.5357)"/>
        <path d="M44.39,65.92c-1.57-1.18-2.92-3.27-3.59-5.82c-0.56-2.14-0.57-4.29-0.02-6.05 c0.57-1.84,1.66-3.06,3.08-3.43c2.86-0.75,6.14,2.29,7.31,6.77c0.56,2.14,0.57,4.29,0.02,6.05c-0.57,1.84-1.66,3.06-3.08,3.43 C46.88,67.19,45.58,66.82,44.39,65.92z M47.1,52.22c-0.97-0.73-2.03-1.05-3.02-0.79c-1.13,0.3-2.02,1.31-2.49,2.86 c-0.5,1.62-0.49,3.61,0.03,5.59c1.05,4.03,3.87,6.8,6.28,6.17c1.13-0.3,2.02-1.31,2.49-2.86c0.5-1.62,0.49-3.61-0.03-5.59 C49.74,55.22,48.5,53.28,47.1,52.22z" fill="#FFE0B2"/>
      </g>
      <polygon points="68.78,46.18 69.93,55.34 84.91,51.54 80.12,48.03 83.77,42.82 " fill="#7CB342" stroke="#F1F8E9" stroke-width="0.7531" stroke-miterlimit="10"/>
      <path d="M64.59,44.94c2.15-2.05,1.54-6.33-1.99-5.41c-1.04,0.27-2.17,0.85-3.15,0.13 c-0.23-0.19-0.38-0.51-0.31-0.81c0.13-0.56,0.86-0.98,1.31-1.2c1.37-0.61,2.52-0.67,2.86-2.28c0.42-1.96-2.51-3.91-4.39-3.8 c-2.57,0.15-2.68,2.06-2.36,4.31c0.19,1.09-0.96,1.89-1.69,0.96c-0.51-0.97-0.08-2.5-0.55-3.51c-0.49-1.72-2.62-1.79-3.97-0.98 c-1.27,0.76-2.41,2.29-1.97,3.79c0.43,1.46,1.52,1.75,2.7,2.02c0.58,0.13,1.32,0.37,1.63,0.96c0.48,1.34-1.87,0.71-2.58,0.81 c-0.75,0-1.46,0.08-2.05,0.56c-1.62,1.22-1.38,4.18,0.66,5.15c1.82,1.14,3.53-0.24,4.51-1.93c0.26-0.39,0.57-0.83,1.03-0.88 c0.86-0.09,0.87,1,0.73,1.56c-0.22,0.91-0.71,1.74-0.93,2.65c-0.72,3.09,3.76,4.25,5.55,1.86c1.09-1.48,0.35-3.13-1.01-4.36 c-0.34-0.31-0.64-0.92-0.28-1.33c0.72-0.76,2.01,0.51,2.41,0.84C61.95,45.05,63.09,46.1,64.59,44.94z" fill="#FFE36C"/>
      <circle cx="56" cy="40.16" r="1.94" fill="#FF7555"/>
      <path d="M54.92,108.65l-4.49-2.72l4.37-7.14l7.67,4.65c0.66,0.4,0.86,1.26,0.46,1.91 C62.94,105.36,59.79,111.65,54.92,108.65z" fill="#424242"/>
      <path d="M50.75,96.3c-0.66-0.4-1.51-0.19-1.92,0.46l-1.51,2.47c-1.17,1.91-0.57,4.41,1.32,5.59l1.11,0.68 c3.02,1.86,7.59,1.9,10.25-2.93c0.15-0.27,0.05-0.61-0.21-0.76L50.75,96.3z" fill="#757575"/>
      <path d="M73.11,110.06c-1.04-0.63-2.01-0.39-2.84,0.73c-2.22,2.99-4.53,3.54-6.12,3.5l0.58,0.35 c3.53,2.25,7.65,0.79,9.76-3.5c0.05-0.1,0.01-0.22-0.08-0.28L73.11,110.06z" fill="#424242"/>
      <path d="M26.9,81.76c0.66,0.4,0.86,1.26,0.46,1.91l-1.51,2.47c-1.17,1.91-3.65,2.53-5.58,1.39l-1.11-0.67 c-3.06-1.85-5.14-6.22-2.07-10.64c0.12-0.17,0.36-0.22,0.53-0.11L26.9,81.76z" fill="#757575"/>
      <path d="M47.95,64.05c0.36-1.04-0.69-1.52-1.04-2.22c0.06-1.05,0.96-2.06,0.25-3.14 c2.38-1.89,0.33-2.7-1.76-2.8c0.12-0.34,0.59-0.49,0.79-0.84c0.34-0.5,0.31-1.19-0.09-1.65c-0.42-0.65-2.47-0.72-1.92,0.4 c0.46,0.52,0.79-0.48,1.28-0.23c0.67,0.45-0.26,1.09-0.58,1.44c-0.39,0.37-0.52,0.87-0.33,1.27c0.42,0.89,1.64,0.49,2.39,0.61 c0.83,0.19,0.14,0.97-0.3,1.18c-0.11,0.07-0.57-0.18-0.72-0.19c-4.27-0.94-2.74,4.52,0.34,1.52c0.91,0.65-0.57,1.67-0.39,2.47 c0.19,0.99,1.68,1.61,0.95,2.81c-0.03,0.04-0.06,0.09-0.03,0.14C47.19,65.03,47.79,64.44,47.95,64.05z M45.11,59.41 c-0.28,0.23-0.86,0.23-0.92-0.2c0.09-0.62,1.06-0.61,1.46-0.31C45.49,59.08,45.3,59.26,45.11,59.41z" fill="#FFE0B2"/>
    </g>
  </g>
</svg>

<svg viewBox="0 0 128 128" xmlns="http://www.w3.org/2000/svg">
  <defs>
    <linearGradient id="SVGID_1_" gradientTransform="matrix(0.8526 0.5225 -0.5225 0.8526 0 0)" gradientUnits="userSpaceOnUse" x1="75.840634" x2="80.828834" y1="-23.227781" y2="-23.227781">
      <stop offset="0" stop-color="#EEEEEE"/>
      <stop offset="1" stop-color="#757575"/>
    </linearGradient>
    <linearGradient id="SVGID_2_" gradientTransform="matrix(0.8526 0.5225 -0.5225 0.8526 0 0)" gradientUnits="userSpaceOnUse" x1="95.426234" x2="100.414334" y1="-23.271081" y2="-23.271081">
      <stop offset="0" stop-color="#EEEEEE"/>
      <stop offset="1" stop-color="#757575"/>
    </linearGradient>
  </defs>
  <path d="M64.56,117.94 A6.06 6.06 0 1 1 52.44,117.94 A6.06 6.06 0 1 1 64.56,117.94 Z" fill="#616161"/>
  <path d="M61.06,117.94 A2.56 2.56 0 1 1 55.94,117.94 A2.56 2.56 0 1 1 61.06,117.94 Z" fill="#9E9E9E"/>
  <path d="M44.18,115.27 L43.02,114.56 C41.54,113.65 41.08,111.72 41.99,110.24 L44.61,105.98 C45.52,104.5 47.45,104.04 48.93,104.95 L50.09,105.66 C51.57,106.57 52.03,108.5 51.12,109.98 L48.5,114.24 C47.59,115.72 45.65,116.18 44.18,115.27 Z" fill="#616161"/>
  <path d="M34.81,99.64 A6.06 6.06 0 1 1 22.69,99.64 A6.06 6.06 0 1 1 34.81,99.64 Z" fill="#616161"/>
  <path d="M31.31,99.64 A2.56 2.56 0 1 1 26.19,99.64 A2.56 2.56 0 1 1 31.31,99.64 Z" fill="#9E9E9E"/>
  <path d="M14.42,96.97 L13.26,96.26 C11.78,95.35 11.32,93.42 12.23,91.94 L14.85,87.68 C15.76,86.2 17.69,85.74 19.17,86.65 L20.33,87.36 C21.81,88.27 22.27,90.2 21.36,91.68 L18.74,95.94 C17.83,97.41 15.9,97.87 14.42,96.97 Z" fill="#616161"/>
  <path d="M85.89,13.56 L75.21,30.98 L71.86,28.86 L82.63,11.3 Z" fill="#BDBDBD"/>
  <path d="M86.326,13.827 L75.375,31.689 L71.161,29.022 L82.477,10.572 L86.578,13.415 Z M85.202,13.705 L82.783,12.028 L72.559,28.698 L75.045,30.271 L85.202,13.705 Z" fill="url(#SVGID_1_)"/>
  <path d="M102.87,23.34 L91.81,41.38 L88.43,39.31 L99.48,21.27 Z" fill="#BDBDBD"/>
  <path d="M103.306,23.607 L91.979,42.083 L87.727,39.479 L99.311,20.568 L103.574,23.171 Z M102.166,23.509 L99.649,21.972 L89.133,39.141 L91.641,40.677 L102.166,23.509 Z" fill="url(#SVGID_2_)"/>
  <path d="M84.25,6.02 L81.18,11.03 C80.89,11.5 80.92,12.05 81.37,12.32 C81.37,12.32 82.19,11.85 83.8,12.89 C85.41,13.93 85.55,14.91 85.55,14.91 C86,15.18 86.43,14.83 86.72,14.36 L87.91,12.41 C88.7,11.12 90.07,10.57 91.3,11.32 L98.63,15.81 C99.86,16.56 100.21,18.22 99.42,19.51 L98.91,20.36 C98.57,20.92 98,21.57 98.53,21.9 C98.53,21.9 99.33,21.7 100.97,22.77 C102.61,23.85 102.73,24.48 102.73,24.48 C103.26,24.81 103.79,24.49 104.13,23.93 L106.68,19.76 C107.32,18.72 107.79,16.67 106.29,14.45 C105.08,12.66 103.99,11.57 98.38,8.13 C92.73,4.67 91.62,4.49 89.53,4.06 C87.18,3.65 84.88,4.99 84.25,6.02 Z" fill="#616161"/>
  <path d="M90.23,7.69 C89.07,7.44 87.86,7.45 86.72,7.76 C86.58,7.8 86.44,7.84 86.3,7.81 C86.04,7.76 85.88,7.48 85.89,7.21 C85.9,6.95 86.04,6.71 86.2,6.49 C87.84,4.31 91.02,5.18 93.15,6.36 C93.87,6.76 95.8,7.93 94.68,8.95 C94.38,9.23 93.91,9.25 93.52,9.13 C93.13,9.01 92.79,8.76 92.44,8.55 C91.76,8.15 91.01,7.86 90.23,7.69 Z" fill="#BDBDBD" opacity="0.65"/>
  <path d="M107.11,57.86 C109.16,54.53 108.11,50.16 104.78,48.12 L90.11,39.1 L49.43,105.23 L64.14,114.28 C67.47,116.33 71.84,115.28 73.88,111.95 L107.11,57.86 Z" fill="#0277BD"/>
  <path d="M19.09,86.64 L49.75,105.5 C53.08,107.55 57.45,106.5 59.49,103.17 L92.75,49.03 C94.8,45.7 93.75,41.33 90.42,39.29 L59.76,20.44 C56.43,18.39 52.06,19.44 50.02,22.77 L16.76,76.9 C14.71,80.24 15.75,84.6 19.09,86.64 Z" fill="#03A9F4"/>
  <path d="M58.96,111.09 C60.4,111.06 61.74,110.68 63.17,110.24 C64.98,109.68 66.5,108.78 67.52,107.13 C67.52,107.13 99.7,54.73 99.7,54.73 C100.88,52.81 100.88,50.5 100.16,48.42 C99.8,47.37 99.36,46.21 98.52,45.09 C97.82,44.16 96.57,43.05 96.51,43.02 C97.29,43.02 98.45,43.74 100.05,45.24 C102.98,47.98 103.43,52.41 101.38,55.75 C101.38,55.76 69.2,108.15 69.2,108.15 C68.04,110.05 66.17,111.45 64.03,112.05 C63.06,112.32 61.86,112.43 60.83,112.32 C59.29,112.16 58.96,111.09 58.96,111.09 Z" fill="#212121"/>
  <path d="M50.768,57.501 C51.882,61.765 50.646,65.781 48.006,66.471 C45.367,67.16 42.324,64.263 41.209,59.999 C40.095,55.735 41.332,51.719 43.971,51.029 C46.611,50.34 49.654,53.237 50.768,57.501 Z" fill="#784D30"/>
  <path d="M44.39,65.92 C42.82,64.74 41.47,62.65 40.8,60.1 C40.24,57.96 40.23,55.81 40.78,54.05 C41.35,52.21 42.44,50.99 43.86,50.62 C46.72,49.87 50,52.91 51.17,57.39 C51.73,59.53 51.74,61.68 51.19,63.44 C50.62,65.28 49.53,66.5 48.11,66.87 C46.88,67.19 45.58,66.82 44.39,65.92 Z M47.1,52.22 C46.13,51.49 45.07,51.17 44.08,51.43 C42.95,51.73 42.06,52.74 41.59,54.29 C41.09,55.91 41.1,57.9 41.62,59.88 C42.67,63.91 45.49,66.68 47.9,66.05 C49.03,65.75 49.92,64.74 50.39,63.19 C50.89,61.57 50.88,59.58 50.36,57.6 C49.74,55.22 48.5,53.28 47.1,52.22 Z" fill="#FFE0B2"/>
  <path d="M68.78,46.18 L69.93,55.34 L84.91,51.54 L80.12,48.03 L83.77,42.82 Z" fill="#7CB342"/>
  <path d="M68.364,45.887 L84.636,42.24 L80.64,47.944 L85.777,51.709 L69.609,55.81 L68.406,46.227 Z M69.196,46.473 L70.251,54.87 L84.043,51.371 L79.6,48.116 L82.904,43.4 L69.196,46.473 Z" fill="#F1F8E9"/>
  <path d="M64.59,44.94 C66.74,42.89 66.13,38.61 62.6,39.53 C61.56,39.8 60.43,40.38 59.45,39.66 C59.22,39.47 59.07,39.15 59.14,38.85 C59.27,38.29 60,37.87 60.45,37.65 C61.82,37.04 62.97,36.98 63.31,35.37 C63.73,33.41 60.8,31.46 58.92,31.57 C56.35,31.72 56.24,33.63 56.56,35.88 C56.75,36.97 55.6,37.77 54.87,36.84 C54.36,35.87 54.79,34.34 54.32,33.33 C53.83,31.61 51.7,31.54 50.35,32.35 C49.08,33.11 47.94,34.64 48.38,36.14 C48.81,37.6 49.9,37.89 51.08,38.16 C51.66,38.29 52.4,38.53 52.71,39.12 C53.19,40.46 50.84,39.83 50.13,39.93 C49.38,39.93 48.67,40.01 48.08,40.49 C46.46,41.71 46.7,44.67 48.74,45.64 C50.56,46.78 52.27,45.4 53.25,43.71 C53.51,43.32 53.82,42.88 54.28,42.83 C55.14,42.74 55.15,43.83 55.01,44.39 C54.79,45.3 54.3,46.13 54.08,47.04 C53.36,50.13 57.84,51.29 59.63,48.9 C60.72,47.42 59.98,45.77 58.62,44.54 C58.28,44.23 57.98,43.62 58.34,43.21 C59.06,42.45 60.35,43.72 60.75,44.05 C61.95,45.05 63.09,46.1 64.59,44.94 Z" fill="#FFE36C"/>
  <path d="M57.94,40.16 A1.94 1.94 0 1 1 54.06,40.16 A1.94 1.94 0 1 1 57.94,40.16 Z" fill="#FF7555"/>
  <path d="M54.92,108.65 L50.43,105.93 L54.8,98.79 L62.47,103.44 C63.13,103.84 63.33,104.7 62.93,105.35 C62.94,105.36 59.79,111.65 54.92,108.65 Z" fill="#424242"/>
  <path d="M50.75,96.3 C50.09,95.9 49.24,96.11 48.83,96.76 L47.32,99.23 C46.15,101.14 46.75,103.64 48.64,104.82 L49.75,105.5 C52.77,107.36 57.34,107.4 60,102.57 C60.15,102.3 60.05,101.96 59.79,101.81 L50.75,96.3 Z" fill="#757575"/>
  <path d="M73.11,110.06 C72.07,109.43 71.1,109.67 70.27,110.79 C68.05,113.78 65.74,114.33 64.15,114.29 L64.73,114.64 C68.26,116.89 72.38,115.43 74.49,111.14 C74.54,111.04 74.5,110.92 74.41,110.86 L73.11,110.06 Z" fill="#424242"/>
  <path d="M26.9,81.76 C27.56,82.16 27.76,83.02 27.36,83.67 L25.85,86.14 C24.68,88.05 22.2,88.67 20.27,87.53 L19.16,86.86 C16.1,85.01 14.02,80.64 17.09,76.22 C17.21,76.05 17.45,76 17.62,76.11 L26.9,81.76 Z" fill="#757575"/>
  <path d="M47.95,64.05 C48.31,63.01 47.26,62.53 46.91,61.83 C46.97,60.78 47.87,59.77 47.16,58.69 C49.54,56.8 47.49,55.99 45.4,55.89 C45.52,55.55 45.99,55.4 46.19,55.05 C46.53,54.55 46.5,53.86 46.1,53.4 C45.68,52.75 43.63,52.68 44.18,53.8 C44.64,54.32 44.97,53.32 45.46,53.57 C46.13,54.02 45.2,54.66 44.88,55.01 C44.49,55.38 44.36,55.88 44.55,56.28 C44.97,57.17 46.19,56.77 46.94,56.89 C47.77,57.08 47.08,57.86 46.64,58.07 C46.53,58.14 46.07,57.89 45.92,57.88 C41.65,56.94 43.18,62.4 46.26,59.4 C47.17,60.05 45.69,61.07 45.87,61.87 C46.06,62.86 47.55,63.48 46.82,64.68 C46.79,64.72 46.76,64.77 46.79,64.82 C47.19,65.03 47.79,64.44 47.95,64.05 Z M45.11,59.41 C44.83,59.64 44.25,59.64 44.19,59.21 C44.28,58.59 45.25,58.6 45.65,58.9 C45.49,59.08 45.3,59.26 45.11,59.41 Z" fill="#FFE0B2"/>
</svg>
